X:270
T: Portsmouth, The
R:hp 32
M: 4/4
L: 1/8
R: hornpipe
K:Gmaj
|:D2|G3A BAGF|E4e4|d2B2cBAG|A6D2|
G3A BAGF|E4e4|d2B2cBAB|G6:|
|:D2|g3a bagf|g2d4B2|d2B2cBAG|A6 D2|
G3A BAGF|E4e4|d2B2cBAB|G6:|

